src/assets/ledger.svg

<svg width="147" height="128" viewBox="0 0 147 128" fill="none" xmlns="http://www.w3.org/2000/svg">
<path d="M0 91.6548V128H55.293V119.94H8.05631V91.6548H0ZM138.944 91.6548V119.94H91.707V127.998H147V91.6548H138.944ZM55.3733 36.3452V91.6529H91.707V84.3842H63.4296V36.3452H55.3733ZM0 0V36.3452H8.05631V8.05844H55.293V0H0ZM91.707 0V8.05844H138.944V36.3452H147V0H91.707Z" fill="white"/>
</svg>

<svg xmlns="http://www.w3.org/2000/svg" width="147" height="128" fill="none" viewBox="0 0 147 128"><path fill="#fff" d="M0 91.655V128h55.293v-8.06H8.056V91.655zm138.944 0v28.285H91.707v8.058H147V91.655zm-83.57-55.31v55.308h36.333v-7.269H63.43V36.345zM0 0v36.345h8.056V8.058h47.237V0zm91.707 0v8.058h47.237v28.287H147V0z"/></svg>
